docs/images/logos/vueling.svg

<?xml version="1.0" encoding="UTF-8" standalone="no"?>
<svg
   xmlns:dc="http://purl.org/dc/elements/1.1/"
   xmlns:cc="http://creativecommons.org/ns#"
   xmlns:rdf="http://www.w3.org/1999/02/22-rdf-syntax-ns#"
   xmlns:svg="http://www.w3.org/2000/svg"
   xmlns="http://www.w3.org/2000/svg"
   xmlns:sodipodi="http://sodipodi.sourceforge.net/DTD/sodipodi-0.dtd"
   xmlns:inkscape="http://www.inkscape.org/namespaces/inkscape"
   inkscape:version="1.0beta2 (2b71d25, 2019-12-03)"
   sodipodi:docname="vueling.svg"
   id="svg29"
   version="1.1"
   viewBox="0 0 1000 423"
   height="423pt"
   width="1000pt">
  <metadata
     id="metadata35">
    <rdf:RDF>
      <cc:Work
         rdf:about="">
        <dc:format>image/svg+xml</dc:format>
        <dc:type
           rdf:resource="http://purl.org/dc/dcmitype/StillImage" />
      </cc:Work>
    </rdf:RDF>
  </metadata>
  <defs
     id="defs33" />
  <sodipodi:namedview
     inkscape:current-layer="svg29"
     inkscape:window-maximized="0"
     inkscape:window-y="23"
     inkscape:window-x="0"
     inkscape:cy="331.20278"
     inkscape:cx="791.43668"
     inkscape:zoom="0.65194801"
     showgrid="false"
     id="namedview31"
     inkscape:window-height="741"
     inkscape:window-width="1243"
     inkscape:pageshadow="2"
     inkscape:pageopacity="0"
     guidetolerance="10"
     gridtolerance="10"
     objecttolerance="10"
     borderopacity="1"
     inkscape:document-rotation="0"
     bordercolor="#666666"
     pagecolor="#ffffff" />
  <g
     id="color_fdfdfdff" />
  <g
     transform="matrix(1.2860902,0,0,1.2860902,-141.80707,-60.975551)"
     id="color_757575ff">
    <path
       inkscape:connector-curvature="0"
       id="path11"
       d="m 497.28,87.44 c 5.43,-1.62 11.76,-0.58 16.03,3.27 3.62,3.37 5.16,8.41 5.18,13.26 0.02,47.67 0.01,95.34 0.01,143.01 -0.26,7.14 1.25,15.15 -3.17,21.36 -4.4,6.41 -13.64,8.1 -20.42,4.72 -5.53,-2.75 -8.49,-9.09 -8.42,-15.08 0.02,-49.31 0,-98.63 0.01,-147.94 0.06,-4.4 -0.46,-8.97 1.1,-13.18 1.55,-4.4 5.18,-8.08 9.68,-9.42 z"
       opacity="1.00"
       fill="#757575" />
    <path
       inkscape:connector-curvature="0"
       id="path13"
       d="m 370.27,177.35 c 8.12,-11.58 21.65,-18.72 35.61,-20.07 14.83,-1.64 31.19,0.88 42.68,11.07 10.67,9.38 15.43,23.75 16.4,37.58 0.3,5.44 1.1,11.41 -1.74,16.35 -2.21,3.9 -7.08,4.93 -11.22,4.96 -20.6,0.04 -41.21,-0.03 -61.81,0.03 1.31,7.66 4.9,15.87 12.51,19.09 10.62,4.52 22.6,1.86 33.22,-1.32 4.21,-1.25 8.56,-2.8 13.02,-2.18 6.22,1.34 10.64,8.01 9.93,14.25 -0.6,4.75 -4.52,8.17 -8.43,10.43 -7.18,3.98 -15.39,5.57 -23.46,6.52 -15.28,1.78 -31.83,0.59 -44.94,-8.19 -12.99,-8.4 -20.43,-23.35 -22.26,-38.41 -2.11,-17.16 0.27,-35.75 10.49,-50.11 m 30.28,7.13 c -7.68,4.04 -9.58,13.39 -10.35,21.27 15.02,0.01 30.05,-0.02 45.07,0.01 -0.57,-8.04 -3.25,-17.13 -10.9,-21.16 -7.32,-3.6 -16.45,-3.56 -23.82,-0.12 z"
       opacity="1.00"
       fill="#757575" />
    <path
       inkscape:connector-curvature="0"
       id="path15"
       d="m 246.2,158.13 c 5.51,-1.55 12.03,-0.62 16.16,3.57 3.5,3.44 4.9,8.45 4.88,13.24 0.03,17.7 -0.01,35.39 0.01,53.08 -0.04,6.38 2.57,13.18 8.14,16.7 4.9,3.18 11.01,3.47 16.66,2.81 4.85,-0.61 9.69,-2.88 12.51,-7 3.18,-4.5 3.63,-10.2 3.69,-15.54 0.01,-17.34 -0.01,-34.68 0,-52.01 0.05,-6.04 3.69,-12.1 9.42,-14.32 6.23,-2.51 14.27,-1.32 18.63,4.09 3.4,3.91 4.06,9.3 3.97,14.3 -0.11,15.96 0.12,31.93 -0.11,47.9 -0.33,13.66 -4.03,28.27 -14.43,37.81 -11.15,10.28 -27.14,12.77 -41.77,12.2 -13.48,-0.46 -27.81,-4.51 -36.99,-14.95 -8.42,-9.52 -11.58,-22.58 -11.72,-35.02 0.02,-17.34 -0.03,-34.68 0.02,-52.01 0.08,-6.57 4.52,-13.01 10.93,-14.85 z"
       opacity="1.00"
       fill="#757575" />
    <path
       inkscape:connector-curvature="0"
       id="path17"
       d="m 639.18,158.3 c 15.02,-1.89 31.39,-1.2 44.63,6.93 9.11,5.46 15.31,14.89 17.99,25.06 1.84,6.73 2.45,13.75 2.46,20.71 -0.02,15.32 -0.01,30.64 0,45.96 0.09,5.07 -1.56,10.41 -5.44,13.85 -5.73,5.12 -15.1,5.24 -21.05,0.44 -3.9,-3.17 -5.94,-8.28 -5.79,-13.26 0.05,-15.34 0,-30.68 0.03,-46.02 0.03,-6.76 0.28,-14.18 -3.83,-19.96 -3.36,-4.97 -9.45,-7.25 -15.26,-7.46 -5.74,-0.17 -12.01,0.93 -16.31,5.04 -4,3.99 -5.39,9.85 -5.37,15.35 0.03,17.38 -0.01,34.76 0.03,52.13 0.01,4.14 -0.89,8.43 -3.48,11.76 -5.5,7.35 -17.72,7.96 -24.02,1.33 -3.15,-3.18 -4.55,-7.74 -4.52,-12.14 -0.01,-11.67 0.01,-23.33 0,-35 0.11,-10.66 -0.72,-21.52 2.16,-31.93 2.4,-9.91 8.14,-19.11 16.6,-24.94 6.3,-4.28 13.68,-6.73 21.17,-7.85 z"
       opacity="1.00"
       fill="#757575" />
    <path
       inkscape:connector-curvature="0"
       id="path19"
       d="m 742.86,170.89 c 10.92,-9.6 25.79,-13.77 40.14,-13.42 14.06,0.02 28.4,2.9 40.72,9.87 5.67,3.08 9.92,9.05 9.78,15.67 0,33.01 -0.01,66.03 0.01,99.05 -0.21,14.94 -5,30.79 -16.68,40.78 -11.73,10.1 -27.8,13.06 -42.86,12.86 -11.58,-0.49 -23.25,-3.41 -33.22,-9.44 -3.6,-2.31 -7,-5.19 -9.09,-8.97 -3.82,-7.05 0.62,-17.11 8.48,-18.88 5.78,-0.9 11.2,1.93 16.4,4.04 7.06,3.11 14.76,4.87 22.5,4.59 6.6,-0.01 13.68,-1.66 18.47,-6.48 4.45,-4.63 5.81,-11.31 5.76,-17.53 -0.02,-5.76 -0.05,-11.51 -0.01,-17.27 -9.04,7.95 -21.73,9.86 -33.37,9.11 -12.19,-0.75 -24.15,-6.19 -32.13,-15.55 -11.23,-12.87 -14.55,-30.78 -13.64,-47.4 0.78,-15.35 6.88,-30.9 18.74,-41.03 m 33.68,13.92 c -4.89,0.84 -9.65,3 -13.1,6.62 -6.31,6.84 -7.74,16.61 -7.73,25.56 0.13,8.05 0.76,16.8 5.75,23.48 4.73,6.15 13.13,7.55 20.43,6.98 6.98,-0.34 13.87,-4.14 17.08,-10.5 6,-11.38 3.87,-24.64 4.29,-36.98 -0.22,-3.67 1.1,-8.41 -2.57,-10.79 -6.84,-5.04 -16.02,-5.58 -24.15,-4.37 z"
       opacity="1.00"
       fill="#757575" />
    <path
       inkscape:connector-curvature="0"
       id="path21"
       d="m 117.43,166.62 c 3.39,-6.57 11.75,-9.13 18.66,-7.72 5.49,1.02 9.4,5.89 10.77,11.08 6.32,21.33 12.66,42.65 18.94,64 0.34,1.25 0.93,2.43 1.61,3.53 6.62,-21.85 13.04,-43.76 19.52,-65.66 1.22,-4.69 3.48,-9.62 8.08,-11.82 7.39,-3.37 17.56,-0.98 21.75,6.24 2.67,4.79 1.99,10.65 0.06,15.57 -8.99,25.03 -17.81,50.12 -26.77,75.16 -1.88,4.82 -3.68,9.95 -7.43,13.69 -3.88,3.69 -9.56,4.06 -14.64,4.1 -5.64,0.03 -11.92,-0.49 -16.25,-4.55 -3.97,-3.81 -6.05,-9.08 -7.93,-14.13 -8.89,-25.12 -17.71,-50.26 -26.64,-75.35 -1.66,-4.52 -2.06,-9.78 0.27,-14.14 z"
       opacity="1.00"
       fill="#757575" />
    <path
       inkscape:connector-curvature="0"
       id="path23"
       d="m 553.41,159.66 c 6.73,-2.67 15.28,-0.64 19.38,5.52 2.44,3.41 3,7.74 2.98,11.83 -0.04,26.67 -0.02,53.35 -0.01,80.02 -0.01,4.46 -1.12,9.12 -4.16,12.51 -5.76,6.8 -17.54,6.99 -23.54,0.42 -2.88,-3.23 -4.35,-7.58 -4.32,-11.88 0.01,-27.69 0.02,-55.39 0,-83.08 -0.17,-6.4 3.54,-13.03 9.67,-15.34 z"
       opacity="1.00"
       fill="#757575" />
  </g>
  <g
     transform="matrix(1.2860902,0,0,1.2860902,-141.80707,-60.975551)"
     id="color_fbe666ff">
    <path
       inkscape:connector-curvature="0"
       id="path26"
       d="m 855.45,98.75 c 5.06,-1.6 10.64,-1.6 15.7,0.02 6.29,2.02 11.27,7.65 12.37,14.18 0.69,5.61 0.44,11.81 -3,16.56 -6.7,9.38 -21.25,10.66 -30.39,4.27 -11.75,-8.75 -9.34,-30.73 5.32,-35.03 z"
       opacity="1.00"
       fill="#fbe666" />
  </g>
</svg>

<?xml version="1.0" encoding="UTF-8" ?>
<!DOCTYPE svg PUBLIC "-//W3C//DTD SVG 1.1//EN" "http://www.w3.org/Graphics/SVG/1.1/DTD/svg11.dtd">
<svg width="1000pt" height="423pt" viewBox="0 0 1000 423" version="1.1" xmlns="http://www.w3.org/2000/svg">
<g id="color_fdfdfdff">
</g>
<g id="color_757575ff">
<path fill="#757575" opacity="1.00" d=" M 497.28 87.44 C 502.71 85.82 509.04 86.86 513.31 90.71 C 516.93 94.08 518.47 99.12 518.49 103.97 C 518.51 151.64 518.50 199.31 518.50 246.98 C 518.24 254.12 519.75 262.13 515.33 268.34 C 510.93 274.75 501.69 276.44 494.91 273.06 C 489.38 270.31 486.42 263.97 486.49 257.98 C 486.51 208.67 486.49 159.35 486.50 110.04 C 486.56 105.64 486.04 101.07 487.60 96.86 C 489.15 92.46 492.78 88.78 497.28 87.44 Z" />
<path fill="#757575" opacity="1.00" d=" M 370.27 177.35 C 378.39 165.77 391.92 158.63 405.88 157.28 C 420.71 155.64 437.07 158.16 448.56 168.35 C 459.23 177.73 463.99 192.10 464.96 205.93 C 465.26 211.37 466.06 217.34 463.22 222.28 C 461.01 226.18 456.14 227.21 452.00 227.24 C 431.40 227.28 410.79 227.21 390.19 227.27 C 391.50 234.93 395.09 243.14 402.70 246.36 C 413.32 250.88 425.30 248.22 435.92 245.04 C 440.13 243.79 444.48 242.24 448.94 242.86 C 455.16 244.20 459.58 250.87 458.87 257.11 C 458.27 261.86 454.35 265.28 450.44 267.54 C 443.26 271.52 435.05 273.11 426.98 274.06 C 411.70 275.84 395.15 274.65 382.04 265.87 C 369.05 257.47 361.61 242.52 359.78 227.46 C 357.67 210.30 360.05 191.71 370.27 177.35 M 400.55 184.48 C 392.87 188.52 390.97 197.87 390.20 205.75 C 405.22 205.76 420.25 205.73 435.27 205.76 C 434.70 197.72 432.02 188.63 424.37 184.60 C 417.05 181.00 407.92 181.04 400.55 184.48 Z" />
<path fill="#757575" opacity="1.00" d=" M 246.20 158.13 C 251.71 156.58 258.23 157.51 262.36 161.70 C 265.86 165.14 267.26 170.15 267.24 174.94 C 267.27 192.64 267.23 210.33 267.25 228.02 C 267.21 234.40 269.82 241.20 275.39 244.72 C 280.29 247.90 286.40 248.19 292.05 247.53 C 296.90 246.92 301.74 244.65 304.56 240.53 C 307.74 236.03 308.19 230.33 308.25 224.99 C 308.26 207.65 308.24 190.31 308.25 172.98 C 308.30 166.94 311.94 160.88 317.67 158.66 C 323.90 156.15 331.94 157.34 336.30 162.75 C 339.70 166.66 340.36 172.05 340.27 177.05 C 340.16 193.01 340.39 208.98 340.16 224.95 C 339.83 238.61 336.13 253.22 325.73 262.76 C 314.58 273.04 298.59 275.53 283.96 274.96 C 270.48 274.50 256.15 270.45 246.97 260.01 C 238.55 250.49 235.39 237.43 235.25 224.99 C 235.27 207.65 235.22 190.31 235.27 172.98 C 235.35 166.41 239.79 159.97 246.20 158.13 Z" />
<path fill="#757575" opacity="1.00" d=" M 639.18 158.30 C 654.20 156.41 670.57 157.10 683.81 165.23 C 692.92 170.69 699.12 180.12 701.80 190.29 C 703.64 197.02 704.25 204.04 704.26 211.00 C 704.24 226.32 704.25 241.64 704.26 256.96 C 704.35 262.03 702.70 267.37 698.82 270.81 C 693.09 275.93 683.72 276.05 677.77 271.25 C 673.87 268.08 671.83 262.97 671.98 257.99 C 672.03 242.65 671.98 227.31 672.01 211.97 C 672.04 205.21 672.29 197.79 668.18 192.01 C 664.82 187.04 658.73 184.76 652.92 184.55 C 647.18 184.38 640.91 185.48 636.61 189.59 C 632.61 193.58 631.22 199.44 631.24 204.94 C 631.27 222.32 631.23 239.70 631.27 257.07 C 631.28 261.21 630.38 265.50 627.79 268.83 C 622.29 276.18 610.07 276.79 603.77 270.16 C 600.62 266.98 599.22 262.42 599.25 258.02 C 599.24 246.35 599.26 234.69 599.25 223.02 C 599.36 212.36 598.53 201.50 601.41 191.09 C 603.81 181.18 609.55 171.98 618.01 166.15 C 624.31 161.87 631.69 159.42 639.18 158.30 Z" />
<path fill="#757575" opacity="1.00" d=" M 742.86 170.89 C 753.78 161.29 768.65 157.12 783.00 157.47 C 797.06 157.49 811.40 160.37 823.72 167.34 C 829.39 170.42 833.64 176.39 833.50 183.01 C 833.50 216.02 833.49 249.04 833.51 282.06 C 833.30 297.00 828.51 312.85 816.83 322.84 C 805.10 332.94 789.03 335.90 773.97 335.70 C 762.39 335.21 750.72 332.29 740.75 326.26 C 737.15 323.95 733.75 321.07 731.66 317.29 C 727.84 310.24 732.28 300.18 740.14 298.41 C 745.92 297.51 751.34 300.34 756.54 302.45 C 763.60 305.56 771.30 307.32 779.04 307.04 C 785.64 307.03 792.72 305.38 797.51 300.56 C 801.96 295.93 803.32 289.25 803.27 283.03 C 803.25 277.27 803.22 271.52 803.26 265.76 C 794.22 273.71 781.53 275.62 769.89 274.87 C 757.70 274.12 745.74 268.68 737.76 259.32 C 726.53 246.45 723.21 228.54 724.12 211.92 C 724.90 196.57 731.00 181.02 742.86 170.89 M 776.54 184.81 C 771.65 185.65 766.89 187.81 763.44 191.43 C 757.13 198.27 755.70 208.04 755.71 216.99 C 755.84 225.04 756.47 233.79 761.46 240.47 C 766.19 246.62 774.59 248.02 781.89 247.45 C 788.87 247.11 795.76 243.31 798.97 236.95 C 804.97 225.57 802.84 212.31 803.26 199.97 C 803.04 196.30 804.36 191.56 800.69 189.18 C 793.85 184.14 784.67 183.60 776.54 184.81 Z" />
<path fill="#757575" opacity="1.00" d=" M 117.43 166.62 C 120.82 160.05 129.18 157.49 136.09 158.90 C 141.58 159.92 145.49 164.79 146.86 169.98 C 153.18 191.31 159.52 212.63 165.80 233.98 C 166.14 235.23 166.73 236.41 167.41 237.51 C 174.03 215.66 180.45 193.75 186.93 171.85 C 188.15 167.16 190.41 162.23 195.01 160.03 C 202.40 156.66 212.57 159.05 216.76 166.27 C 219.43 171.06 218.75 176.92 216.82 181.84 C 207.83 206.87 199.01 231.96 190.05 257.00 C 188.17 261.82 186.37 266.95 182.62 270.69 C 178.74 274.38 173.06 274.75 167.98 274.79 C 162.34 274.82 156.06 274.30 151.73 270.24 C 147.76 266.43 145.68 261.16 143.80 256.11 C 134.91 230.99 126.09 205.85 117.16 180.76 C 115.50 176.24 115.10 170.98 117.43 166.62 Z" />
<path fill="#757575" opacity="1.00" d=" M 553.41 159.66 C 560.14 156.99 568.69 159.02 572.79 165.18 C 575.23 168.59 575.79 172.92 575.77 177.01 C 575.73 203.68 575.75 230.36 575.76 257.03 C 575.75 261.49 574.64 266.15 571.60 269.54 C 565.84 276.34 554.06 276.53 548.06 269.96 C 545.18 266.73 543.71 262.38 543.74 258.08 C 543.75 230.39 543.76 202.69 543.74 175.00 C 543.57 168.60 547.28 161.97 553.41 159.66 Z" />
</g>
<g id="color_fbe666ff">
<path fill="#fbe666" opacity="1.00" d=" M 855.45 98.75 C 860.51 97.15 866.09 97.15 871.15 98.77 C 877.44 100.79 882.42 106.42 883.52 112.95 C 884.21 118.56 883.96 124.76 880.52 129.51 C 873.82 138.89 859.27 140.17 850.13 133.78 C 838.38 125.03 840.79 103.05 855.45 98.75 Z" />
</g>
</svg>
